symbolic/32x32/apps/com.github.hannesschulze.optimizer.svg

<svg xmlns="http://www.w3.org/2000/svg" style="fill:none" width="32" height="32" version="1.1">
 <path style="opacity:0.2" d="M 16,8 C 7.67287,8 1.3886848,15.271868 1.000976,23.975811 A 1.0001217,0.98086727 0 0 0 1.9996956,25 H 30.000304 a 1.0001217,0.98086727 0 0 0 0.99872,-1.024189 C 30.611286,15.271873 24.327131,8 16,8 Z"/>
 <path style="fill:#5d6d79" d="M 16,7 C 7.67287,7 1.3886848,14.271868 1.000976,22.975811 A 1.0001217,0.98086727 0 0 0 1.9996956,24 H 30.000304 a 1.0001217,0.98086727 0 0 0 0.99872,-1.024189 C 30.611286,14.271873 24.327131,7 16,7 Z"/>
 <path style="opacity:0.2" d="m 16.541879,26.229 -1.692538,-1.923693 7.57923,-4.962077 z"/>
 <path style="fill:#e2900d" d="m 16.541879,25.229 -1.692538,-1.923693 7.57923,-4.962077 z"/>
 <path style="fill:#ffffff;opacity:0.1" d="M 22.427734 18.34375 L 14.849609 23.304688 L 15.408203 23.939453 L 20.486328 20.615234 L 22.427734 18.34375 z"/>
 <circle style="opacity:0.2" cx="16" cy="25" r="2"/>
 <circle style="fill:#ed274c" cx="16" cy="24" r="2"/>
 <g style="opacity:0.2;stroke:#000000" transform="translate(0,0.9999)">
  <path style="fill:none;stroke:#000000;stroke-width:2;stroke-linecap:round" d="m 16,9 v 2"/>
  <path style="fill:none;stroke:#000000;stroke-width:2;stroke-linecap:round" d="M 29,22 H 27"/>
  <path style="fill:none;stroke:#000000;stroke-width:2;stroke-linecap:round" d="M 5,22 H 3"/>
  <path style="fill:none;stroke:#000000;stroke-width:2;stroke-linecap:round" d="m 6.4737206,16.5 -1.7320508,-1"/>
  <path style="fill:none;stroke:#000000;stroke-width:2;stroke-linecap:round" d="m 25.526279,16.5 1.732051,-1"/>
  <path style="fill:none;stroke:#000000;stroke-width:2;stroke-linecap:round" d="m 21.5,12.473721 1,-1.732051"/>
  <path style="fill:none;stroke:#000000;stroke-width:2;stroke-linecap:round" d="M 10.5,12.473721 9.5,10.74167"/>
 </g>
 <g>
  <path style="fill:none;stroke:#ffffff;stroke-width:2;stroke-linecap:round" d="m 16,9 v 2"/>
  <path style="fill:none;stroke:#ffffff;stroke-width:2;stroke-linecap:round" d="M 29,22 H 27"/>
  <path style="fill:none;stroke:#ffffff;stroke-width:2;stroke-linecap:round" d="M 5,22 H 3"/>
  <path style="fill:none;stroke:#ffffff;stroke-width:2;stroke-linecap:round" d="m 6.4737206,16.5 -1.7320508,-1"/>
  <path style="fill:none;stroke:#ffffff;stroke-width:2;stroke-linecap:round" d="m 25.526279,16.5 1.732051,-1"/>
  <path style="fill:none;stroke:#ffffff;stroke-width:2;stroke-linecap:round" d="m 21.5,12.473721 1,-1.732051"/>
  <path style="fill:none;stroke:#ffffff;stroke-width:2;stroke-linecap:round" d="M 10.5,12.473721 9.5,10.74167"/>
 </g>
 <path style="opacity:0.1;fill:#ffffff" d="M 16 7 C 7.67287 7 1.3877088 14.272619 1 22.976562 A 1.0001217 0.98086727 0 0 0 1.0566406 23.341797 C 1.7151212 14.923718 7.8774154 8 16 8 C 24.121337 8 30.283257 14.921572 30.943359 23.337891 A 1.0001217 0.98086727 0 0 0 31 22.976562 C 30.612262 14.272624 24.327131 7 16 7 z"/>
 <path style="fill:#ffffff;opacity:0.2" d="M 16 22 A 2 2 0 0 0 14 24 A 2 2 0 0 0 14.064453 24.503906 A 2 2 0 0 1 16 23 A 2 2 0 0 1 17.935547 24.496094 A 2 2 0 0 0 18 24 A 2 2 0 0 0 16 22 z"/>
</svg>

<svg xmlns="http://www.w3.org/2000/svg" style="fill:none" width="32" height="32"><path style="opacity:.2" d="M16 8C7.673 8 1.389 15.272 1.001 23.976A1 .98 0 0 0 2 25h28A1 .98 0 0 0 31 23.976C30.611 15.272 24.327 8 16 8z"/><path style="fill:#5d6d79" d="M16 7C7.673 7 1.389 14.272 1.001 22.976A1 .98 0 0 0 2 24h28A1 .98 0 0 0 31 22.976C30.611 14.272 24.327 7 16 7z"/><path style="opacity:.2" d="m16.542 26.229-1.693-1.924 7.58-4.962z"/><path style="fill:#e2900d" d="m16.542 25.229-1.693-1.924 7.58-4.962z"/><path style="fill:#fff;opacity:.1" d="m22.428 18.344-7.578 4.96.558.635 5.078-3.324 1.942-2.271z"/><circle style="opacity:.2" cx="16" cy="25" r="2"/><circle style="fill:#ed274c" cx="16" cy="24" r="2"/><g style="opacity:.2;stroke:#000"><path style="fill:none;stroke:#000;stroke-width:2;stroke-linecap:round" d="M16 9v2M29 22h-2M5 22H3M6.474 16.5l-1.732-1M25.526 16.5l1.732-1M21.5 12.474l1-1.732M10.5 12.474l-1-1.732" transform="translate(0 1)"/></g><path style="fill:none;stroke:#fff;stroke-width:2;stroke-linecap:round" d="M16 9v2M29 22h-2M5 22H3M6.474 16.5l-1.732-1M25.526 16.5l1.732-1M21.5 12.474l1-1.732M10.5 12.474l-1-1.732"/><path style="opacity:.1;fill:#fff" d="M16 7C7.673 7 1.388 14.273 1 22.977a1 .98 0 0 0 .057.365C1.715 14.924 7.877 8 16 8c8.121 0 14.283 6.922 14.943 15.338a1 .98 0 0 0 .057-.361C30.612 14.273 24.327 7 16 7z"/><path style="fill:#fff;opacity:.2" d="M16 22a2 2 0 0 0-2 2 2 2 0 0 0 .064.504A2 2 0 0 1 16 23a2 2 0 0 1 1.936 1.496A2 2 0 0 0 18 24a2 2 0 0 0-2-2z"/></svg>
